X: 1
T: Finbar Dwyer's
M: 4/4
L: 1/8
R: reel
K: Gmaj
|:F | GB~B2 AGEG | DEGe dBAB | GD~D2 B,DGA | BGAB G3A |
BGBd gdBd | c2BG AGEF | GEDB, G,DBe | dBAB G3 :|
|:^c | dB~B2 GB~B2 | dBcB AGFA | DEFG ABcA | dec2 AGFA |
G2BG DCB,D | GBdB cBAc | B/2c/2dgd BGDB | cedc BGA :|
